src/lib/packages/icons/src/assets/filled/file-upload.svg

<svg width="24" height="24" viewBox="0 0 24 24" fill="none" xmlns="http://www.w3.org/2000/svg">
<path d="M14.75 6V3.75L19.25 8.25H17C15.42 8.25 14.75 7.58 14.75 6ZM20 9.75V18C20 20 19 21 17 21H8C6 21 5 20 5 18V6C5 4 6 3 8 3H13.25V6C13.25 8.42 14.58 9.75 17 9.75H20ZM13.53 13.47L11.53 11.47C11.461 11.401 11.3779 11.346 11.2859 11.308C11.1029 11.232 10.8959 11.232 10.7129 11.308C10.6209 11.346 10.538 11.401 10.469 11.47L8.46899 13.47C8.17599 13.763 8.17599 14.238 8.46899 14.531C8.76199 14.824 9.23703 14.824 9.53003 14.531L10.25 13.811V17C10.25 17.414 10.586 17.75 11 17.75C11.414 17.75 11.75 17.414 11.75 17V13.811L12.47 14.531C12.616 14.677 12.808 14.751 13 14.751C13.192 14.751 13.384 14.678 13.53 14.531C13.823 14.238 13.823 13.762 13.53 13.47Z" fill="currentColor"/>
</svg>

<svg xmlns="http://www.w3.org/2000/svg" width="24" height="24" fill="none"><path fill="currentColor" d="M14.75 6V3.75l4.5 4.5H17c-1.58 0-2.25-.67-2.25-2.25ZM20 9.75V18c0 2-1 3-3 3H8c-2 0-3-1-3-3V6c0-2 1-3 3-3h5.25v3c0 2.42 1.33 3.75 3.75 3.75h3Zm-6.47 3.72-2-2a.75.75 0 0 0-.817-.162.749.749 0 0 0-.244.162l-2 2a.75.75 0 1 0 1.061 1.061l.72-.72V17a.75.75 0 0 0 1.5 0v-3.189l.72.72a.748.748 0 0 0 1.06 0 .75.75 0 0 0 0-1.061Z"/></svg>
